!!!OTL: WO MAN SINGET LASS DICH RUHIG NIEDER
!!!ARE: Europa, Mitteleuropa, Deutschland
!!!SCT: B0317
!!!YEM: Copyright 1995, estate of Helmut Schaffrath.
**kern
*ICvox
*Ivox
*M4/4
*k[b-e-a-]
*E-:
{8g
8a-
=1
8cc
8b-
4g
8b-
8b-
8ee-
8dd
=2
4dd
4cc
4r}
{8cc
8cc
=3
4.b-
8g
8f
8f
8cc
8b-
=4
4a-
4g
4r}
{8b-
8b-
=5
8b-
8d
4d
8b-
8b-
8cc
8dd
=6
2ee-
4r}
{8b-
8b-
=7
8b-
8dd
4dd
8b-
8b-
8cc
8dd
=8
2ee-
4r}
{8.b-
16b-
=9
4b-
4ee-
8.dd
16b-
8.a-
16f
=10
4f
4e-
4r}
==
!!!AGN: Geselligkeits - Lied, Freude
!!!ONB: ESAC (Essen Associative Code) Database: BOEHME
!!!AMT: simple quadruple
!!!AIN: vox
!!!EED: Helmut Schaffrath
!!!EEV: 1.0
*-
